!!!!SEGMENT: Mou2015-Nesciens_mater.krn
!!!id: Mou2015
!!!AGN: Motet
!!!SCT: Lowinsky (1968)
!!!voices: 8
!!!COM: Jean Mouton
!!!OTL: Nesciens mater
**kern	**kern	**kern	**kern	**kern	**kern	**kern	**kern
*part8	*part7	*part6	*part5	*part4	*part3	*part2	*part1
*staff8	*staff7	*staff6	*staff5	*staff4	*staff3	*staff2	*staff1
*I"Bassus II	*I"Bassus I	*I"Tenor II	*I"Tenor I	*I"Altus II	*I"Altus I	*I"Superius II	*I"Superius I
*I'B. II	*I'B. I	*I'T. II	*I'T. I	*I'A. II	*I'A. I	*I'S. II	*I'S. I
*clefF4	*clefF4	*clefF4	*clefGv2	*clefGv2	*clefGv2	*clefG2	*clefG2
*k[b-]	*k[b-]	*k[b-]	*k[b-]	*k[b-]	*k[b-]	*k[b-]	*k[b-]
*F:	*F:	*F:	*F:	*F:	*F:	*F:	*F:
*M2/1	*M2/1	*M2/1	*M2/1	*M2/1	*M2/1	*M2/1	*M2/1
*met(C|)	*met(C|)	*met(C|)	*met(C|)	*met(C|)	*met(C|)	*met(C|)	*met(C|)
=1	=1	=1	=1	=1	=1	=1	=1
!LO:TX:a:t=Canon&colon; bassus II/bassus I at the fifth	!	!LO:TX:a:t=Canon&colon; tenor II/tenor I at the fifth	!	!LO:TX:a:t=Canon&colon; altus II/superius II at the fifth	!LO:TX:a:t=Canon&colon; altus I/superius I at the fifth	!	!
!!section: Prima pars: Nesciens mater
!!!OMD: Prima pars: Nesciens mater
0F	0r	1r	0r	1f	0c	0r	0r
.	.	[1F	.	2f	.	.	.
.	.	.	.	[2f	.	.	.
=2	=2	=2	=2	=2	=2	=2	=2
1D	0r	2F]	0r	4f]	1d	0r	0r
.	.	.	.	4e	.	.	.
.	.	2F	.	4d	.	.	.
.	.	.	.	4c	.	.	.
1D	.	1F	.	1B-y	1d	.	.
=3	=3	=3	=3	=3	=3	=3	=3
0C	0c	0G	1r	1c	0e	1cc	0g
.	.	.	[1c	2r	.	2cc	.
.	.	.	.	2C	.	[2cc	.
=4	=4	=4	=4	=4	=4	=4	=4
0FF	1A	0F	2c]	4F	0f	4cc]	1a
.	.	.	.	4G	.	4b-y	.
.	.	.	2c	4A	.	4a	.
.	.	.	.	4B-y	.	4g	.
.	1A	.	1c	1c	.	1f	1a
=5	=5	=5	=5	=5	=5	=5	=5
0r	0G	1r	0d	0r	2r	1g	0b-y
.	.	.	.	.	2d	.	.
.	.	[1G	.	.	[1g	2r	.
.	.	.	.	.	.	2G	.
=6	=6	=6	=6	=6	=6	=6	=6
0r	0C	1G]	0c	0r	2g]	4c	0cc
.	.	.	.	.	.	4d	.
.	.	.	.	.	2g	4e	.
.	.	.	.	.	.	4f	.
.	.	1G	.	.	1e	1g	.
=7	=7	=7	=7	=7	=7	=7	=7
1AA	0r	1A	1r	2r	1c	0r	2r
.	.	.	.	2c	.	.	2a
[1BB-y	.	[1F	[1d	2.f	[1B-y	.	[1dd
.	.	.	.	4e	.	.	.
=8	=8	=8	=8	=8	=8	=8	=8
1BB-]	0r	1F]	1d]	2d	1B-]	0r	2dd]
.	.	.	.	4c	.	.	2dd
.	.	.	.	4B-y	.	.	.
1BB-y	.	1F	1d	1f	1d	.	1b-y
=9	=9	=9	=9	=9	=9	=9	=9
1C	1E	0r	1e	2e	1c	2r	1g
.	.	.	.	2.c	.	2g	.
[1FF	[1F	.	[1c	.	[1A	2.cc	[1f
.	.	.	.	4B-y	.	.	.
.	.	.	.	4A	.	.	.
.	.	.	.	4G	.	4b-y	.
=10	=10	=10	=10	=10	=10	=10	=10
0FF]	1F]	0r	1c]	2F	1A]	2a	1f]
.	.	.	.	2f	.	4g	.
.	.	.	.	.	.	4f	.
.	1F	.	1c	2f	1A	1cc	1a
.	.	.	.	2f	.	.	.
=11	=11	=11	=11	=11	=11	=11	=11
0r	1G	0r	0r	1d	1B-y	2b-y	1g
.	.	.	.	.	.	2.g	.
.	[1C	.	.	2g	[1G	.	[1e
.	.	.	.	.	.	4f	.
.	.	.	.	[2g	.	4e	.
.	.	.	.	.	.	4d	.
=12	=12	=12	=12	=12	=12	=12	=12
1r	0C]	0r	0r	4g]	1G]	2c	1e]
.	.	.	.	4f	.	.	.
.	.	.	.	4e	.	2cc	.
.	.	.	.	4d	.	.	.
1C	.	.	.	1c	1G	2cc	1e
.	.	.	.	.	.	2cc	.
=13	=13	=13	=13	=13	=13	=13	=13
2.D	0r	1.F	0r	2r	1r	1a	1f
.	.	.	.	2f	.	.	.
4C	.	.	.	.	.	.	.
2.BB-y	.	.	.	1f	[1B-y	2dd	[1d
.	.	2F	.	.	.	[2dd	.
4AA	.	.	.	.	.	.	.
=14	=14	=14	=14	=14	=14	=14	=14
0GG	1r	1G	0r	2r	2B-]	4dd]	1d]
.	.	.	.	.	.	4cc	.
.	.	.	.	1d	2B-y	4b-y	.
.	.	.	.	.	.	4a	.
.	1G	1B-y	.	.	4B-y	1g	1d
.	.	.	.	.	4c	.	.
.	.	.	.	2G	4d	.	.
.	.	.	.	.	4e	.	.
=15	=15	=15	=15	=15	=15	=15	=15
0FF	2.A	[0A	1.c	1c	0f	2r	1r
.	.	.	.	.	.	2cc	.
.	4G	.	.	.	.	.	.
.	2.F	.	.	2.A	.	1cc	[1f
.	.	.	2c	.	.	.	.
.	4E	.	.	4G	.	.	.
=16	=16	=16	=16	=16	=16	=16	=16
1r	0D	0A]	1d	0F	0r	2r	2f]
.	.	.	.	.	.	1a	2f
1F	.	.	1f	.	.	.	4f
.	.	.	.	.	.	.	4g
.	.	.	.	.	.	2d	4a
.	.	.	.	.	.	.	4b-y
=17	=17	=17	=17	=17	=17	=17	=17
2G	0C	0r	[0e	0r	1.g	1g	0cc
2G	.	.	.	.	.	.	.
1G	.	.	.	.	.	2.e	.
.	.	.	.	.	2g	.	.
.	.	.	.	.	.	4d	.
=18	=18	=18	=18	=18	=18	=18	=18
0C	1r	0G	0e]	0r	1g	0c	0r
.	1c	.	.	.	1e	.	.
=19	=19	=19	=19	=19	=19	=19	=19
1r	2d	1.B-y	0r	2r	1d	0r	1.dd
.	2d	.	.	2.G	.	.	.
[1GG	1d	.	.	.	1G	.	.
.	.	.	.	4A	.	.	.
.	.	2B-y	.	4B-y	.	.	2dd
.	.	.	.	4c	.	.	.
=20	=20	=20	=20	=20	=20	=20	=20
2GG]	0G	2.B-y	0d	2d	1.B-y	0r	1dd
2GG	.	.	.	2G	.	.	.
.	.	4A	.	.	.	.	.
1GG	.	1G	.	1g	.	.	1b-y
.	.	.	.	.	2c	.	.
=21	=21	=21	=21	=21	=21	=21	=21
1.D	1r	[0F	1.f	0r	2.d	2r	1a
.	.	.	.	.	.	2.d	.
.	.	.	.	.	4e	.	.
.	[1D	.	.	.	2f	.	1d
.	.	.	.	.	.	4e	.
2D	.	.	2f	.	2d	4f	.
.	.	.	.	.	.	4g	.
=22	=22	=22	=22	=22	=22	=22	=22
1D	2D]	0F]	2.f	0r	1d	2a	1.f
.	2D	.	.	.	.	2d	.
.	.	.	4e	.	.	.	.
1BB-y	1D	.	1d	.	1r	1dd	.
.	.	.	.	.	.	.	2g
=23	=23	=23	=23	=23	=23	=23	=23
1AA	1.A	1r	[0c	1r	1r	0r	2.a
.	.	.	.	.	.	.	4b-y
[1FF	.	[1F	.	1c	[1f	.	2cc
.	2A	.	.	.	.	.	2a
=24	=24	=24	=24	=24	=24	=24	=24
1FF]	1A	1F]	0c]	1.f	1f]	0r	1a
1FF	1F	1F	.	.	1a	.	1r
.	.	.	.	2c	.	.	.
=25	=25	=25	=25	=25	=25	=25	=25
0C	1E	0G	1r	2.e	4g	1r	1r
.	.	.	.	.	4f	.	.
.	.	.	.	.	4e	.	.
.	.	.	.	4f	4d	.	.
.	[1C	.	[1c	1g	2.e	1g	[1cc
.	.	.	.	.	4f	.	.
=26	=26	=26	=26	=26	=26	=26	=26
1FF	1C]	1F	1c]	0r	1f	1.cc	1cc]
1r	1C	1r	1c	.	1g	.	1ee
.	.	.	.	.	.	2g	.
=27	=27	=27	=27	=27	=27	=27	=27
1r	0G	0B-y	0d	1r	2g	2.b-y	4dd
.	.	.	.	.	.	.	4cc
.	.	.	.	.	2.g	.	4b-y
.	.	.	.	.	.	4cc	4a
1GG	.	.	.	[1g	.	1dd	2.b-y
.	.	.	.	.	4f	.	.
.	.	.	.	.	2d	.	.
.	.	.	.	.	.	.	4cc
=28	=28	=28	=28	=28	=28	=28	=28
1C	1C	1G	1c	2g]	1e	0r	1cc
.	.	.	.	2c	.	.	.
2.BB-y	1r	[1B-y	1r	2.f	1d	.	1dd
4C	.	.	.	4e	.	.	.
=29	=29	=29	=29	=29	=29	=29	=29
2.D	1r	2B-]	0f	1d	2r	1r	2dd
.	.	4A	.	.	2d	.	2.dd
4E	.	4G	.	.	.	.	.
1F	1D	1A	.	1r	1d	[1dd	.
.	.	.	.	.	.	.	4cc
.	.	.	.	.	.	.	2a
=30	=30	=30	=30	=30	=30	=30	=30
0r	1G	1G	1d	0r	1B-y	2dd]	1b-y
.	.	.	.	.	.	2g	.
.	2.F	1r	[1f	.	[1c	2.cc	1a
.	4G	.	.	.	.	4b-y	.
=31	=31	=31	=31	=31	=31	=31	=31
0r	2.A	0r	2f]	0r	1c]	1a	2r
.	.	.	4e	.	.	.	2a
.	4B-y	.	4d	.	.	.	.
.	1c	.	1e	.	1A	1r	1a
=32	=32	=32	=32	=32	=32	=32	=32
1r	0r	0r	1d	1d	1B-y	0r	1f
[1C	.	.	1r	1e	1G	.	[1g
=33	=33	=33	=33	=33	=33	=33	=33
1C]	0r	1G	0r	2.e	1c	0r	1g]
.	.	.	.	4f	.	.	.
1C	.	1G	.	1g	2c	.	1e
.	.	.	.	.	2c	.	.
=34	=34	=34	=34	=34	=34	=34	=34
1FF	1r	1A	0r	2r	1c	1a	1f
.	.	.	.	2c	.	.	.
[1GG	[1G	1G	.	2g	[1B-y	1b-y	1d
.	.	.	.	[2g	.	.	.
=35	=35	=35	=35	=35	=35	=35	=35
1GG]	1G]	0r	1d	2g]	1B-]	2.b-y	1g
.	.	.	.	4f	.	.	.
.	.	.	.	4e	.	4cc	.
1r	1G	.	1d	1d	1B-y	1dd	2g
.	.	.	.	.	.	.	2g
=36	=36	=36	=36	=36	=36	=36	=36
0r	1C	0r	1e	1c	1c	2r	1g
.	.	.	.	.	.	2g	.
.	[1D	.	1d	1f	1A	2dd	[1f
.	.	.	.	.	.	[2dd	.
=37	=37	=37	=37	=37	=37	=37	=37
0D	1D]	0r	0r	1r	1.d	2dd]	1f]
.	.	.	.	.	.	4cc	.
.	.	.	.	.	.	4b-y	.
.	1r	.	.	[1d	.	1a	1f
.	.	.	.	.	2c	.	.
=38	=38	=38	=38	=38	=38	=38	=38
1G	0r	0r	0r	1d]	2.B-y	1g	1g
.	.	.	.	.	4A	.	.
1C	.	.	.	1c	1G	1cc	1e
=39	=39	=39	=39	=39	=39	=39	=39
1D	0A	1F	0r	1f	1F	1r	1.a
[1D	.	1F	.	[1d	1r	[1a	.
.	.	.	.	.	.	.	2g
=40	=40	=40	=40	=40	=40	=40	=40
2D]	1d	1.D	0r	1d]	0r	1a]	2.f
2C	.	.	.	.	.	.	.
.	.	.	.	.	.	.	4e
1BB-y	1G	.	.	1r	.	1g	1d
.	.	2E	.	.	.	.	.
=41	=41	=41	=41	=41	=41	=41	=41
1AA	1A	2.F	1c	2r	0r	1cc	1c
.	.	.	.	1A	.	.	.
.	.	4E	.	.	.	.	.
1r	[1A	[1F	1c	.	.	[1a	1r
.	.	.	.	2F	.	.	.
=42	=42	=42	=42	=42	=42	=42	=42
1F	2A]	2F]	1.A	1c	2r	1a]	0r
.	2G	2E	.	.	2c	.	.
1F	1F	1D	.	1F	2d	1r	.
.	.	.	2B-y	.	2d	.	.
=43	=43	=43	=43	=43	=43	=43	=43
1G	1E	1C	2.c	0r	1e	2r	0r
.	.	.	.	.	.	1e	.
.	.	.	4B-y	.	.	.	.
1A	1r	1r	[1c	.	2r	.	.
.	.	.	.	.	2e	2c	.
=44	=44	=44	=44	=44	=44	=44	=44
0r	1c	0r	2c]	0r	1e	1g	2r
.	.	.	2B-y	.	.	.	2g
.	1c	.	1A	.	1f	1c	2a
.	.	.	.	.	.	.	2a
=45	=45	=45	=45	=45	=45	=45	=45
0r	1d	0r	1G	1r	3%4g	0r	1b-y
.	1e	.	1r	[1g	.	.	2r
.	.	.	.	.	3f	.	.
.	.	.	.	.	.	.	2b-y
.	.	.	.	.	3e	.	.
=46	=46	=46	=46	=46	=46	=46	=46
1G	0r	0r	0r	1g]	1d	0r	1b-y
1A	.	.	.	1f	1c	.	1cc
=47	=47	=47	=47	=47	=47	=47	=47
1B-y	0r	0r	0r	1d	2r	1r	3%4dd
.	.	.	.	.	2B-y	.	.
1G	.	.	.	1g	2B-y	[1dd	.
.	.	.	.	.	.	.	3cc
.	.	.	.	.	2B-y	.	.
.	.	.	.	.	.	.	3b-y
=48	=48	=48	=48	=48	=48	=48	=48
2D	1d	1r	0r	0r	1f	1dd]	1a
2F	.	.	.	.	.	.	.
1E	1e	1C	.	.	1r	1cc	1g
=49	=49	=49	=49	=49	=49	=49	=49
1D	1f	1D	0r	1d	1F	1a	2r
.	.	.	.	.	.	.	2f
2.BB-y	1d	1F	.	1d	1B-y	1dd	2f
.	.	.	.	.	.	.	2f
4AA	.	.	.	.	.	.	.
=50	=50	=50	=50	=50	=50	=50	=50
2FF	2A	1F	1r	1f	1c	0r	1cc
2AA	2c	.	.	.	.	.	.
1GG	1B-y	1r	1G	1g	2d	.	1r
.	.	.	.	.	2e	.	.
=51	=51	=51	=51	=51	=51	=51	=51
0FF	1A	2.F	1A	2r	1f	1a	1c
.	.	.	.	2c	.	.	.
.	.	4G	.	.	.	.	.
.	2.F	4A	1c	2.c	2r	1a	1f
.	.	4F	.	.	.	.	.
.	.	[2A	.	.	2f	.	.
.	4E	.	.	4d	.	.	.
=52	=52	=52	=52	=52	=52	=52	=52
0r	2C	4A]	1c	1e	2e	1cc	1g
.	.	4G	.	.	.	.	.
.	2E	1G	.	.	1c	.	.
.	1D	.	1r	1f	.	1dd	2a
.	.	2F	.	.	2B-y	.	2b-y
=53	=53	=53	=53	=53	=53	=53	=53
0r	0C	0G	2.c	0r	2.e-X	2r	1cc
.	.	.	.	.	.	2g	.
.	.	.	4d	.	4d	.	.
.	.	.	4e	.	2c	2.g	2r
.	.	.	4c	.	.	.	.
.	.	.	[2e	.	4B-y	.	2cc
.	.	.	.	.	4A	4a	.
=54	=54	=54	=54	=54	=54	=54	=54
0r	0r	0r	4e]	1r	2G	1b-y	2b-y
.	.	.	4d	.	.	.	.
.	.	.	1d	.	2B-y	.	1g
.	.	.	.	2r	1A	1cc	.
.	.	.	2c	2A	.	.	2f
=55	=55	=55	=55	=55	=55	=55	=55
1GG	0r	0r	0d	2B-y	2G	0r	2.b-y
.	.	.	.	2G	1B-y	.	.
.	.	.	.	.	.	.	4a
2GG	.	.	.	1d	.	.	2g
2GG	.	.	.	.	4A	.	4f
.	.	.	.	.	4G	.	4e
=56	=56	=56	=56	=56	=56	=56	=56
1BB-y	0r	0r	0r	2r	2F	1r	2d
.	.	.	.	2d	2.B-y	.	2f
1C	.	.	.	2c	.	2r	1e
.	.	.	.	.	4A	.	.
.	.	.	.	2c	4A	2e	.
.	.	.	.	.	4G	.	.
=57	=57	=57	=57	=57	=57	=57	=57
2.BB-y	1D	1r	0r	2.f	1B-y	2f	2d
.	.	.	.	.	.	2d	1f
4C	.	.	.	4e	.	.	.
1D	2D	[1A	.	2d	2F	1a	.
.	2D	.	.	4c	[2f	.	4e
.	.	.	.	4B-y	.	.	4d
=58	=58	=58	=58	=58	=58	=58	=58
0r	1F	1A]	0r	1A	4f]	2r	2c
.	.	.	.	.	4e	.	.
.	.	.	.	.	1d	2a	2.f
.	1G	1B-y	.	1r	.	2g	.
.	.	.	.	.	.	.	4e
.	.	.	.	.	4c	2g	4e
.	.	.	.	.	4B-y	.	4d
=59	=59	=59	=59	=59	=59	=59	=59
1r	2.F	1.c	1r	2r	1A	2.cc	1f
.	.	.	.	2A	.	.	.
.	4G	.	.	.	.	4b-y	.
[1AA	1A	.	[1e	2A	2r	2a	2c
.	.	2c	.	2A	[2A	4g	[2cc
.	.	.	.	.	.	4f	.
=60	=60	=60	=60	=60	=60	=60	=60
2AA]	0r	2.c	1e]	1c	2A]	1e	4cc]
.	.	.	.	.	.	.	4b-y
2AA	.	.	.	.	2A	.	1a
.	.	4B-y	.	.	.	.	.
1FF	.	1A	1f	2F	1c	1r	.
.	.	.	.	[2c	.	.	4g
.	.	.	.	.	.	.	4f
=61	=61	=61	=61	=61	=61	=61	=61
1C	1r	[0G	1.g	4c]	2r	2r	1e
.	.	.	.	4d	.	.	.
.	.	.	.	4e	2c	2e	.
.	.	.	.	4c	.	.	.
[1C	[1E	.	.	1g	1c	2e	2r
.	.	.	2g	.	.	2e	[2e
=62	=62	=62	=62	=62	=62	=62	=62
2C]	2E]	0G]	2.g	2e	1G	1g	2e]
2C	2E	.	.	2c	.	.	2e
.	.	.	4f	.	.	.	.
1C	1C	.	1e	1c	1r	2c	1g
.	.	.	.	.	.	[2g	.
=63	=63	=63	=63	=63	=63	=63	=63
0GG	1G	1r	[0d	0r	1r	4g]	2r
.	.	.	.	.	.	4a	.
.	.	.	.	.	.	4b-y	2g
.	.	.	.	.	.	4g	.
.	[1G	[1B-y	.	.	1g	1dd	1g
=64	=64	=64	=64	=64	=64	=64	=64
1r	2G]	2B-]	0d]	1r	1.g	2b-y	1d
.	2G	2B-y	.	.	.	2g	.
[1GG	1G	[1B-y	.	2r	.	1g	1r
.	.	.	.	2G	2g	.	.
=65	=65	=65	=65	=65	=65	=65	=65
2GG]	0D	1B-]	1r	2.B-y	1g	0r	1r
2GG	.	.	.	.	.	.	.
.	.	.	.	4c	.	.	.
[1BB-y	.	2r	[1f	1d	1f	.	1dd
.	.	2B-y	.	.	.	.	.
=66	=66	=66	=66	=66	=66	=66	=66
1BB-]	1r	2.B-y	2f]	2r	1r	1r	1.dd
.	.	.	2f	1B-y	.	.	.
.	.	4c	.	.	.	.	.
1BB-y	[1D	4d	[1f	.	2r	2r	.
.	.	4c	.	.	.	.	.
.	.	[2d	.	2B-y	2F	2d	2dd
=67	=67	=67	=67	=67	=67	=67	=67
2BB-y	2D]	4d]	1f]	2d	2.B-y	2.f	1dd
.	.	4c	.	.	.	.	.
2BB-y	2D	1B-y	.	2f	.	.	.
.	.	.	.	.	4B-y	4g	.
1FF	[1F	.	2r	2.f	1c	1a	1cc
.	.	2A	2f	.	.	.	.
.	.	.	.	4e	.	.	.
=68	=68	=68	=68	=68	=68	=68	=68
1BB-y	1F]	1B-y	2.f	2.d	1d	2r	1r
.	.	.	.	.	.	1f	.
.	.	.	4g	8cL	.	.	.
.	.	.	.	8B-yJ	.	.	.
1r	1F	1r	4a	[1A	1r	.	2r
.	.	.	4g	.	.	.	.
.	.	.	[2a	.	.	2f	2c
=69	=69	=69	=69	=69	=69	=69	=69
0r	2F	0r	4a]	1A]	0r	2a	2f
.	.	.	4g	.	.	.	.
.	2F	.	1f	.	.	2cc	2f
.	1C	.	.	1r	.	2.cc	1g
.	.	.	2e	.	.	.	.
.	.	.	.	.	.	4b-y	.
=70	=70	=70	=70	=70	=70	=70	=70
1r	1F	1.c	1f	2r	1r	2.a	1a
.	.	.	.	2A	.	.	.
.	.	.	.	.	.	8gL	.
.	.	.	.	.	.	8fJ	.
[1AA	1r	.	1r	2A	2r	[1e	1r
.	.	2c	.	2A	[2A	.	.
=71	=71	=71	=71	=71	=71	=71	=71
2AA]	0r	2.c	0r	1c	2A]	1e]	0r
2AA	.	.	.	.	2A	.	.
.	.	4B-y	.	.	.	.	.
1FF	.	1A	.	2F	[1c	1r	.
.	.	.	.	[2c	.	.	.
=72	=72	=72	=72	=72	=72	=72	=72
1C	1r	[0G	1.g	4c]	2c]	2r	1r
.	.	.	.	4d	.	.	.
.	.	.	.	4e	2c	2e	.
.	.	.	.	4c	.	.	.
[1C	[1E	.	.	1g	1c	2e	2r
.	.	.	2g	.	.	2e	[2e
=73	=73	=73	=73	=73	=73	=73	=73
2C]	2E]	0G]	2.g	2e	1G	1g	2e]
2C	2E	.	.	2c	.	.	2e
.	.	.	4f	.	.	.	.
1C	1C	.	1e	1c	1r	2c	[1g
.	.	.	.	.	.	[2g	.
=74	=74	=74	=74	=74	=74	=74	=74
0GG	1G	1r	[0d	0r	1r	4g]	2g]
.	.	.	.	.	.	4a	.
.	.	.	.	.	.	4b-y	2g
.	.	.	.	.	.	4g	.
.	[1G	[1B-y	.	.	1g	1dd	1g
=75	=75	=75	=75	=75	=75	=75	=75
1r	2G]	2B-]	0d]	1r	1.g	2b-y	1d
.	2G	2B-y	.	.	.	2g	.
[1GG	1G	[1B-y	.	2r	.	1g	1r
.	.	.	.	2G	2g	.	.
=76	=76	=76	=76	=76	=76	=76	=76
2GG]	0D	1B-]	1r	2.B-y	1g	0r	1r
2GG	.	.	.	.	.	.	.
.	.	.	.	4c	.	.	.
[1BB-y	.	2r	[1f	1d	1f	.	1dd
.	.	2B-y	.	.	.	.	.
=77	=77	=77	=77	=77	=77	=77	=77
1BB-]	1r	2.B-y	2f]	2r	1r	1r	1.dd
.	.	.	2f	1B-y	.	.	.
.	.	4c	.	.	.	.	.
1BB-y	[1D	4d	[1f	.	2r	2r	.
.	.	4c	.	.	.	.	.
.	.	[2d	.	2B-y	2F	2d	2dd
=78	=78	=78	=78	=78	=78	=78	=78
2BB-y	2D]	4d]	1f]	2d	2B-y	2.f	1dd
.	.	4c	.	.	.	.	.
2BB-y	2D	1B-y	.	2f	2B-y	.	.
.	.	.	.	.	.	4g	.
1FF	[1F	.	2r	2.f	1c	1a	1cc
.	.	2A	2f	.	.	.	.
.	.	.	.	4e	.	.	.
=79	=79	=79	=79	=79	=79	=79	=79
1BB-y	1F]	1B-y	2.f	2d	1d	2r	1r
.	.	.	.	4c	.	1f	.
.	.	.	4g	4B-y	.	.	.
2r	1F	1c	4a	2A	2r	.	2r
.	.	.	4g	.	.	.	.
2FF	.	.	[2a	2F	2A	2f	2c
=80	=80	=80	=80	=80	=80	=80	=80
2FF	2F	2A	4a]	1c	2F	2a	2f
.	.	.	4g	.	.	.	.
2FF	2F	2A	1f	.	2.c	2cc	2f
1C	1C	1G	.	1r	.	2.cc	1g
.	.	.	.	.	4d	.	.
.	.	.	2e	.	2e	.	.
.	.	.	.	.	.	4b-y	.
=81	=81	=81	=81	=81	=81	=81	=81
[0FFl	[0Fl	[0Fl	[0fl	1.c	2.A	[0al	[0al
.	.	.	.	.	4B-y	.	.
.	.	.	.	.	1c	.	.
.	.	.	.	2A	.	.	.
=82	=82	=82	=82	=82	=82	=82	=82
00FF]	00F]	00F]	00f]	00Al	00cl	00a]	00a]
==	==	==	==	==	==	==	==
*-	*-	*-	*-	*-	*-	*-	*-
!!!system-decoration: [*]
!!!RDF**kern: i = editorial accidental
!!!RDF**kern: l = terminal long
!!!ENC: Benjamin Ory
!!!END: 2021/4/21
!!!EED: Benjamin Ory
!!!EEV: 2021/05/02
!!!YEC: Copyright 2021 Benjamin Ory, All Rights Reserved
!!!ONB: Translated from MusicXML on 2021/05/02
